X:1
P: Johnny Cope
C: trad., from Matt Petrie
C: arr. T. Traub 2-24-2004
M: 2/4
R: reel
L: 1/8
K: A
|: B | "Am"A2 AB/d/|"C"eg "D"BA/B/|"G"G2 G/A/B/c/|"G"dg "Em"BA/G/|"Am"A2 AB/d/|"C"eg "G"BA/G/|"Am"AB/d/ "Em"ed/B/|"Am"BA A:|
|: G |"Am"Aa ae/d/|"Am"BA AB/A/|"G"Gg g/a/e/d/|"G"BG "Em"GB|"Am"Aa a/g/e/d/|"Em"BG/B/ "Am"AB|"G"dB/d/ e/f/g/d/|"Am"BA A :|
